public/img/field-14.svg

<svg width="85" height="76" viewBox="0 0 85 76" fill="none" xmlns="http://www.w3.org/2000/svg">
<path d="M85 67.1551L84.9645 67.125L85 67.0849L84.0984 66.3221L77.7921 60.5215C77.7921 60.5215 77.6807 60.6369 77.4983 60.8075L77.3311 60.9882C75.8926 62.3179 71.2832 66.1666 65.8735 66.2419C65.757 66.2419 65.6404 66.2419 65.5239 66.2419C62.6772 65.9358 59.9015 64.4204 57.0852 61.6154C52.4099 56.9388 47.2078 54.4148 41.6107 54.0786C41.4537 54.0786 41.2966 54.0786 41.1447 54.0786C40.3027 54.0046 39.4568 53.9828 38.612 54.0133C30.1834 54.3546 23.9227 59.9545 21.7953 62.1122C21.3394 62.5186 21.0658 62.8096 21.0051 62.8598L21.0355 62.8899C21.0262 62.9068 21.0142 62.9221 21 62.9351L21.9016 63.6878L28.2079 69.4934L28.5017 69.2024L28.6689 69.0217C30.1023 67.687 34.7168 63.8383 40.1266 63.7681C40.2431 63.7681 40.3545 63.7681 40.471 63.7681C43.3228 64.0741 46.0935 65.5895 48.9098 68.3945C53.5901 73.0511 58.782 75.5751 64.3792 75.9213C64.5311 75.9213 64.6882 75.9213 64.8452 75.9213C65.6872 75.9955 66.5331 76.0172 67.3778 75.9865C75.8065 75.6453 82.0672 70.0504 84.1946 67.8927C84.6353 67.4712 84.9139 67.1852 84.9696 67.125" fill="#EFC825"/>
<path d="M19.1415 43.01L12.1415 42.01C11.9997 41.9897 11.8551 42.0001 11.7177 42.0406C11.5802 42.081 11.4531 42.1506 11.3448 42.2445C11.2366 42.3383 11.1498 42.4544 11.0903 42.5847C11.0308 42.7151 11 42.8567 11 43V46H10C9.40666 46 8.82664 46.1759 8.33329 46.5056C7.83994 46.8352 7.45543 47.3037 7.22836 47.8519C7.0013 48.4001 6.94189 49.0033 7.05765 49.5852C7.1734 50.1672 7.45912 50.7017 7.87868 51.1213C8.29824 51.5408 8.83279 51.8266 9.41473 51.9423C9.99667 52.0581 10.5999 51.9987 11.1481 51.7716C11.6962 51.5445 12.1648 51.16 12.4944 50.6667C12.8241 50.1733 13 49.5933 13 49V44.153L18 44.8672V47H17C16.4067 47 15.8266 47.1759 15.3333 47.5056C14.8399 47.8352 14.4554 48.3037 14.2284 48.8519C14.0013 49.4001 13.9419 50.0033 14.0576 50.5852C14.1734 51.1672 14.4591 51.7017 14.8787 52.1213C15.2982 52.5408 15.8328 52.8266 16.4147 52.9423C16.9967 53.0581 17.5999 52.9987 18.1481 52.7716C18.6962 52.5445 19.1648 52.16 19.4944 51.6667C19.8241 51.1733 20 50.5933 20 50V44C20 43.7593 19.9132 43.5266 19.7555 43.3448C19.5978 43.1629 19.3798 43.044 19.1415 43.01ZM11 49C11 49.1978 10.9414 49.3911 10.8315 49.5555C10.7216 49.72 10.5654 49.8482 10.3827 49.9238C10.2 49.9995 9.99889 50.0193 9.80491 49.9808C9.61093 49.9422 9.43275 49.8469 9.2929 49.7071C9.15304 49.5672 9.0578 49.389 9.01922 49.1951C8.98063 49.0011 9.00043 48.8 9.07612 48.6173C9.15181 48.4346 9.27998 48.2784 9.44443 48.1685C9.60888 48.0586 9.80222 48 10 48H11V49ZM18 50C18 50.1978 17.9414 50.3911 17.8315 50.5555C17.7216 50.72 17.5654 50.8482 17.3827 50.9238C17.2 50.9995 16.9989 51.0193 16.8049 50.9808C16.6109 50.9422 16.4328 50.8469 16.2929 50.7071C16.153 50.5672 16.0578 50.389 16.0192 50.1951C15.9806 50.0011 16.0004 49.8 16.0761 49.6173C16.1518 49.4346 16.28 49.2784 16.4444 49.1685C16.6089 49.0586 16.8022 49 17 49H18V50Z" fill="#5A2E91"/>
<path d="M59.2425 30.0299L56 29.2192V28.2807L58.7575 28.9701C59.014 29.0323 59.2848 28.9905 59.5106 28.8539C59.7365 28.7172 59.8992 28.4968 59.9632 28.2407C60.0272 27.9846 59.9874 27.7136 59.8524 27.4868C59.7174 27.26 59.4981 27.0957 59.2425 27.0299L55.2425 26.0298C55.0951 25.993 54.9412 25.9902 54.7925 26.0218C54.6439 26.0533 54.5044 26.1183 54.3846 26.2118C54.2648 26.3053 54.1679 26.4249 54.1013 26.5615C54.0346 26.6981 54 26.848 54 27V31H53C52.4067 31 51.8266 31.1759 51.3333 31.5056C50.8399 31.8352 50.4554 32.3038 50.2284 32.8519C50.0013 33.4001 49.9419 34.0033 50.0576 34.5853C50.1734 35.1672 50.4591 35.7017 50.8787 36.1213C51.2982 36.5409 51.8328 36.8266 52.4147 36.9423C52.9967 37.0581 53.5999 36.9987 54.148 36.7716C54.6962 36.5446 55.1648 36.16 55.4944 35.6667C55.8241 35.1733 56 34.5933 56 34V31.2807L58.7575 31.9701C59.014 32.0323 59.2848 31.9905 59.5106 31.8539C59.7365 31.7172 59.8992 31.4968 59.9632 31.2408C60.0272 30.9847 59.9874 30.7136 59.8524 30.4868C59.7174 30.26 59.4981 30.0957 59.2425 30.0299ZM54 34C54 34.1978 53.9414 34.3911 53.8315 34.5556C53.7216 34.72 53.5654 34.8482 53.3827 34.9239C53.2 34.9995 52.9989 35.0194 52.8049 34.9808C52.6109 34.9422 52.4327 34.8469 52.2929 34.7071C52.153 34.5672 52.0578 34.3891 52.0192 34.1951C51.9806 34.0011 52.0004 33.8 52.0761 33.6173C52.1518 33.4346 52.28 33.2784 52.4444 33.1685C52.6089 33.0586 52.8022 33 53 33H54V34Z" fill="#5A2E91"/>
<path d="M49 8.99997V4.99997C49 4.84471 48.9639 4.69158 48.8944 4.55272L47.8944 2.55272C47.8113 2.38663 47.6837 2.24695 47.5257 2.14932C47.3677 2.05169 47.1857 1.99998 47 1.99997H44C43.7348 1.99997 43.4804 2.10533 43.2929 2.29287C43.1054 2.4804 43 2.73476 43 2.99997V4.76385L42.1056 6.55272C42.0362 6.69159 42 6.84472 42 6.99997C42 7.15523 42.0362 7.30836 42.1056 7.44722L42.9521 9.14035L42.1331 13.2348L37.0438 14.9312L35.3265 14.1975L34.4415 12.8701C34.8269 12.498 35.1334 12.0522 35.3427 11.559C35.552 11.0659 35.6598 10.5357 35.6596 9.99997V5.4721C35.6596 4.68991 35.3956 3.93064 34.9102 3.31729C34.4248 2.70394 33.7465 2.27246 32.9852 2.09276C32.2239 1.91305 31.4243 1.99566 30.7159 2.32718C30.0074 2.65871 29.4317 3.21973 29.0819 3.91935L29.0336 4.01585C28.3998 4.07822 27.7967 4.31933 27.2945 4.71112C26.7923 5.10291 26.4118 5.62926 26.1971 6.22892C25.9825 6.82857 25.9425 7.47687 26.082 8.09833C26.2214 8.7198 26.5345 9.28889 26.9848 9.73935L27.6847 10.4393C27.7776 11.2838 28.1378 12.0765 28.7127 12.7018L28.2099 14.2104C28.2099 14.2104 25.602 15.0854 25.5724 15.0999C25.5572 15.107 16.5151 20.1269 16.5151 20.1269C16.3884 20.1972 16.2785 20.2943 16.193 20.4114C16.1076 20.5285 16.0486 20.6627 16.0201 20.8048L14.0201 30.8049C14.0071 30.8691 14.0003 30.9344 14 31V34C14 34.223 14.0746 34.4396 14.2118 34.6154C14.3491 34.7912 14.5411 34.916 14.7575 34.9701L18.7575 35.9701C18.9782 36.0255 19.2112 36.0038 19.4179 35.9087C19.6247 35.8136 19.7928 35.6508 19.8944 35.4472L20.8944 33.4472C20.9638 33.3084 21 33.1552 21 33C21 32.8447 20.9638 32.6916 20.8944 32.5527L20.0684 30.9007L21.853 24.6544L25.7405 22.3216L26.7512 23.6692C27.5591 24.7506 27.997 26.0636 28 27.4135V30C28 30.2652 28.1054 30.5195 28.2929 30.7071C28.4804 30.8946 28.7348 31 29 31H30V33.051C29.9974 34.2557 30.3759 35.4304 31.0815 36.4069L33.8903 44.8331L29.1863 51.4187C29.0787 51.5699 29.0154 51.7481 29.0034 51.9332C28.9915 52.1184 29.0314 52.3032 29.1186 52.467L27.2929 54.2929C27.1545 54.4312 27.0598 54.6072 27.0204 54.7989C26.9811 54.9906 26.9988 55.1896 27.0715 55.3714L29.0715 60.3714C29.1625 60.5987 29.3337 60.7848 29.5527 60.8944L31.5527 61.8944C31.6916 61.9638 31.8447 62 32 62H33C33.1313 62 33.2614 61.9741 33.3827 61.9239C33.504 61.8736 33.6143 61.8 33.7071 61.7071L34.2791 61.1351L35.4864 61.8579C35.6416 61.9509 35.8191 62 36 62H40C40.1683 62 40.3338 61.9575 40.4813 61.8765C40.6288 61.7955 40.7535 61.6786 40.8438 61.5366C40.9341 61.3946 40.9871 61.2322 40.9979 61.0642C41.0087 60.8963 40.977 60.7284 40.9056 60.576L38.8169 56.1135L44.643 48.176C45.5275 46.9765 46.0032 45.5246 46 44.0342V43.6625C45.9999 42.3938 45.6551 41.1489 45.0025 40.061L40 31.723V27.6056C40.002 25.472 39.4732 23.3714 38.4613 21.4931L47.3714 17.9291C47.5373 17.8627 47.6824 17.7531 47.7916 17.6116C47.9008 17.4701 47.9701 17.3019 47.9922 17.1246C47.9922 17.1246 49 9.04147 49 8.99997ZM38 16.7208L40 16.0541V18.723L38 19.523V16.7208ZM33.3424 14.8268C32.8625 15.1365 32.2989 15.2907 31.7282 15.2686C31.1575 15.2465 30.6075 15.0491 30.153 14.7034L30.45 13.8125C31.1797 14.0445 31.9607 14.0619 32.7 13.8625L33.3424 14.8268ZM33.6596 9.99997C33.6577 10.4962 33.4713 10.974 33.1367 11.3405C32.8022 11.707 32.3433 11.936 31.8493 11.9831C31.3553 12.0301 30.8615 11.8919 30.4637 11.5951C30.066 11.2984 29.7927 10.8644 29.6971 10.3775L32.0739 7.99997H33.6596V9.99997ZM28.0701 6.93122C28.1603 6.65982 28.3337 6.42375 28.5657 6.25656C28.7977 6.08938 29.0765 5.99959 29.3625 5.99997H29.6601C29.8459 5.99998 30.0279 5.94826 30.1859 5.85061C30.3439 5.75295 30.4716 5.61323 30.5546 5.4471L30.8713 4.81385C31.0195 4.51722 31.2636 4.27935 31.564 4.13878C31.8644 3.99821 32.2034 3.96318 32.5262 4.03936C32.8489 4.11554 33.1365 4.29847 33.3423 4.55851C33.5481 4.81855 33.6601 5.14047 33.6601 5.4721V5.99997H31.6601C31.5288 5.99997 31.3988 6.02583 31.2774 6.07608C31.1561 6.12633 31.0459 6.19999 30.953 6.29285L28.6596 8.58585L28.3989 8.32497C28.2193 8.14658 28.0934 7.92144 28.0353 7.6751C27.9772 7.42875 27.9892 7.17105 28.0701 6.93122ZM25 17.7V20.4342L23.4136 21.3861L22.3207 19.1875L25 17.7ZM20.0385 23.725L18.0385 30.725C17.9698 30.9656 17.9937 31.2232 18.1056 31.447L18.882 33L18.4644 33.8354L16 33.2192V31.099L17.8899 21.649L20.5706 20.1597L21.6933 22.4174L20.4855 23.1424C20.268 23.2728 20.1082 23.4811 20.0385 23.725ZM28.3519 22.469L27 20.6666V16.7207L28.7465 16.1385C29.6014 16.8624 30.6833 17.2631 31.8035 17.2706C32.9236 17.2781 34.0109 16.892 34.8754 16.1796L36.0004 16.6601V21C36.0004 21.1974 36.0589 21.3904 36.1684 21.5547C37.3647 23.3458 38.0022 25.4518 38 27.6056V29H30V27.4135C29.9963 25.6311 29.4183 23.8974 28.3519 22.4692V22.469ZM35.8138 45.5815C35.9054 45.4531 35.9654 45.3049 35.9888 45.1489C36.0123 44.9929 35.9986 44.8336 35.9487 44.684L34.2944 39.7215L38.7306 44.1465L32.7591 53.7286L31.2645 51.95L35.8138 45.5815ZM32.2361 60L30.7873 59.275L29.1734 55.2402L30.3929 54.0209L31.6491 55.5154C31.5667 55.6626 31.5231 55.8283 31.5223 55.997C31.5216 56.1657 31.5637 56.3318 31.6447 56.4798C31.7258 56.6277 31.8431 56.7527 31.9857 56.8428C32.1283 56.933 32.2915 56.9854 32.4599 56.9952L31.7474 58.5914C31.6476 58.8147 31.6331 59.0668 31.7067 59.3001C31.7803 59.5334 31.9368 59.7316 32.1466 59.8572L32.3841 59.9994L32.2361 60ZM36.2765 60L33.9346 58.5977L34.6485 57H37.0235L38.4279 60H36.2765ZM43.2875 41.0895C43.7537 41.8667 44 42.7561 44 43.6625V44.0349C44.0023 45.0995 43.6625 46.1366 43.0306 46.9935L37.1533 55H34.3232L40.8483 44.5289C40.9679 44.337 41.0189 44.1102 40.993 43.8856C40.9672 43.6609 40.866 43.4517 40.7059 43.292L33.0809 35.6849C32.3863 34.9845 31.9976 34.0374 32 33.051V31H38V32C38.0001 32.1812 38.0493 32.359 38.1425 32.5145L43.2875 41.0895ZM47 8.93747L46.0809 16.2903L42 17.923V15.3875L43.3161 14.9487C43.4834 14.893 43.633 14.794 43.7497 14.6618C43.8664 14.5297 43.946 14.369 43.9806 14.1961L44.9806 9.1961C45.0242 8.97802 44.9939 8.75162 44.8944 8.55272L44.118 6.99997L44.8944 5.44722C44.9639 5.30837 45 5.15524 45 4.99997V3.99997H46.382L47 5.2361V8.93747Z" fill="#5A2E91"/>
<path d="M27.7071 37.2928L27.1214 36.707C26.7648 36.3523 26.482 35.9305 26.2895 35.4658C26.097 35.0011 25.9986 34.5029 26 34C26 33.7348 25.8947 33.4804 25.7071 33.2929C25.5196 33.1053 25.2652 33 25 33C24.7348 33 24.4805 33.1053 24.2929 33.2929C24.1054 33.4804 24 33.7348 24 34C23.9979 34.7657 24.1477 35.5242 24.4407 36.2316C24.7337 36.9391 25.1641 37.5814 25.707 38.1213L26.2929 38.7071C26.4804 38.8946 26.7348 39 27 39C27.2652 39 27.5196 38.8946 27.7071 38.7071C27.8947 38.5196 28 38.2652 28 38C28 37.7347 27.8947 37.4804 27.7071 37.2928Z" fill="#5A2E91"/>
<path d="M12.6838 21.9487C12.8084 21.9904 12.9399 22.007 13.0709 21.9977C13.202 21.9885 13.3299 21.9534 13.4474 21.8947C13.5648 21.8359 13.6696 21.7546 13.7556 21.6553C13.8416 21.556 13.9072 21.4408 13.9486 21.3161L14.2415 20.4376C14.4227 19.8889 14.7109 19.3816 15.0895 18.945C15.4681 18.5085 15.9295 18.1514 16.447 17.8944C16.6806 17.7737 16.8573 17.5659 16.9389 17.3159C17.0204 17.0659 17.0002 16.7939 16.8826 16.5587C16.765 16.3235 16.5595 16.1441 16.3106 16.0593C16.0618 15.9745 15.7895 15.9911 15.5528 16.1056C14.7998 16.4795 14.1285 16.999 13.5777 17.6341C13.0269 18.2693 12.6076 19.0073 12.344 19.8056L12.0511 20.6844C11.9674 20.9359 11.9871 21.2104 12.1057 21.4475C12.2243 21.6846 12.4323 21.8649 12.6838 21.9487Z" fill="#5A2E91"/>
<path d="M19.0012 16.5C19.1562 16.4999 19.3091 16.4636 19.4477 16.3941L20.4477 15.8941C20.5662 15.836 20.672 15.755 20.759 15.6558C20.8461 15.5566 20.9126 15.4411 20.9549 15.3161C20.9971 15.191 21.0141 15.0589 21.005 14.9272C20.9959 14.7956 20.9608 14.667 20.9018 14.549C20.8428 14.4309 20.761 14.3257 20.6611 14.2394C20.5612 14.1532 20.4452 14.0875 20.3199 14.0463C20.1945 14.005 20.0622 13.989 19.9306 13.9992C19.799 14.0093 19.6708 14.0454 19.5532 14.1053L18.5532 14.6053C18.3515 14.706 18.1898 14.8719 18.0943 15.0761C17.9987 15.2803 17.975 15.5107 18.0268 15.7301C18.0787 15.9494 18.2032 16.1448 18.38 16.2846C18.5569 16.4243 18.7758 16.5002 19.0012 16.5Z" fill="#5A2E91"/>
<path d="M51.2893 19.2944L51.9488 17.3162C51.9903 17.1916 52.0069 17.0601 51.9976 16.9291C51.9883 16.7981 51.9532 16.6702 51.8945 16.5527C51.8358 16.4352 51.7545 16.3305 51.6553 16.2444C51.5561 16.1584 51.4409 16.0927 51.3163 16.0512C51.1917 16.0097 51.0601 15.9931 50.9291 16.0024C50.7981 16.0117 50.6702 16.0467 50.5528 16.1055C50.4353 16.1642 50.3306 16.2455 50.2445 16.3447C50.1585 16.4439 50.0928 16.5591 50.0513 16.6837L49.3919 18.6624C49.3313 18.8448 49.2316 19.0117 49.0997 19.1515C48.9679 19.2913 48.8071 19.4006 48.6286 19.4718C48.5067 19.5206 48.3956 19.5929 48.3016 19.6846C48.2076 19.7763 48.1326 19.8857 48.0809 20.0064C48.0291 20.1271 48.0017 20.2568 48.0001 20.3881C47.9985 20.5194 48.0227 20.6498 48.0715 20.7717C48.1203 20.8936 48.1926 21.0048 48.2843 21.0988C48.376 21.1927 48.4854 21.2677 48.6061 21.3195C48.7268 21.3712 48.8565 21.3987 48.9878 21.4003C49.1191 21.4019 49.2495 21.3776 49.3714 21.3288C49.8199 21.1499 50.224 20.8751 50.5552 20.5237C50.8865 20.1723 51.137 19.7528 51.2893 19.2944Z" fill="#5A2E91"/>
<path d="M45.6286 20.6715L44.6286 21.0715C44.5066 21.1203 44.3955 21.1926 44.3015 21.2843C44.2075 21.3761 44.1325 21.4854 44.0808 21.6061C43.9764 21.8499 43.973 22.1252 44.0716 22.3715C44.1701 22.6177 44.3624 22.8148 44.6062 22.9192C44.85 23.0237 45.1253 23.027 45.3716 22.9285L46.3716 22.5285C46.6178 22.43 46.8148 22.2376 46.9193 21.9938C47.0238 21.75 47.0271 21.4747 46.9286 21.2285C46.83 20.9822 46.6377 20.7852 46.3939 20.6807C46.1501 20.5763 45.8748 20.5729 45.6286 20.6715Z" fill="#5A2E91"/>
<path d="M25 31C25.2652 31 25.5196 30.8946 25.7071 30.7071C25.8946 30.5195 26 30.2652 26 30V29C26 28.7348 25.8946 28.4804 25.7071 28.2929C25.5196 28.1053 25.2652 28 25 28C24.7348 28 24.4804 28.1053 24.2929 28.2929C24.1054 28.4804 24 28.7348 24 29V30C24 30.2652 24.1054 30.5195 24.2929 30.7071C24.4804 30.8946 24.7348 31 25 31Z" fill="#5A2E91"/>
</svg>

<svg width="85" height="76" fill="none" xmlns="http://www.w3.org/2000/svg"><path d="M85 67.155l-.035-.03.035-.04-.902-.763-6.306-5.8s-.111.115-.294.285l-.167.181c-1.438 1.33-6.048 5.179-11.457 5.254h-.35c-2.847-.306-5.623-1.822-8.439-4.627-4.675-4.676-9.877-7.2-15.474-7.536h-.466a20.487 20.487 0 00-2.533-.066c-8.429.342-14.69 5.942-16.817 8.1-.456.406-.73.697-.79.747l.03.03a.177.177 0 01-.035.045l.902.753 6.306 5.805.294-.29.167-.181c1.433-1.335 6.048-5.184 11.458-5.254h.344c2.852.306 5.623 1.822 8.439 4.626 4.68 4.657 9.872 7.181 15.47 7.527h.465c.842.075 1.688.096 2.533.066 8.428-.342 14.69-5.937 16.817-8.094.44-.422.719-.708.775-.768" fill="#EFC825"/><path d="M19.142 43.01l-7-1A.999.999 0 0011 43v3h-1a3 3 0 103 3v-4.847l5 .714V47h-1a3 3 0 103 3v-6a1 1 0 00-.858-.99zM11 49a1 1 0 11-1-1h1v1zm7 1a1 1 0 11-1-1h1v1zm41.242-19.97L56 29.22v-.94l2.758.69a1 1 0 00.484-1.94l-4-1A1 1 0 0054 27v4h-1a3 3 0 103 3v-2.72l2.758.69a1 1 0 00.484-1.94zM54 34a1 1 0 11-1-1h1v1z" fill="#5A2E91"/><path d="M49 9V5a1 1 0 00-.106-.447l-1-2A1 1 0 0047 2h-3a1 1 0 00-1 1v1.764l-.894 1.789a1 1 0 000 .894l.846 1.693-.819 4.095-5.09 1.696-1.716-.733-.886-1.328A3.988 3.988 0 0035.66 10V5.472a3.472 3.472 0 00-6.578-1.553l-.048.097a3.363 3.363 0 00-2.05 5.723l.7.7a3.987 3.987 0 001.029 2.263l-.503 1.508s-2.608.875-2.638.89c-.015.007-9.057 5.027-9.057 5.027a.999.999 0 00-.495.678l-2 10A.985.985 0 0014 31v3a1 1 0 00.758.97l4 1a.998.998 0 001.136-.523l1-2a1 1 0 000-.894l-.826-1.652 1.785-6.247 3.887-2.332 1.011 1.347A6.28 6.28 0 0128 27.413V30a1 1 0 001 1h1v2.051a5.709 5.709 0 001.081 3.356l2.81 8.426-4.705 6.586a.999.999 0 00-.067 1.048l-1.826 1.826a1 1 0 00-.221 1.078l2 5a1 1 0 00.48.523l2 1A1 1 0 0032 62h1a1.001 1.001 0 00.707-.293l.572-.572 1.207.723A1 1 0 0036 62h4a1 1 0 00.906-1.424l-2.09-4.462 5.827-7.938A6.954 6.954 0 0046 44.034v-.371a7.002 7.002 0 00-.998-3.602L40 31.723v-4.117a12.863 12.863 0 00-1.539-6.113l8.91-3.564a1 1 0 00.621-.804S49 9.04 49 9zm-11 7.72l2-.666v2.669l-2 .8v-2.802zm-4.658-1.893a2.778 2.778 0 01-3.189-.124l.297-.89c.73.231 1.51.249 2.25.05l.642.964zM33.66 10a2 2 0 01-3.963.377L32.074 8h1.586v2zm-5.59-3.069A1.36 1.36 0 0129.363 6h.297a1 1 0 00.895-.553l.316-.633a1.471 1.471 0 012.79.658V6h-2a1 1 0 00-.708.293L28.66 8.586l-.261-.261a1.354 1.354 0 01-.329-1.394zM25 17.7v2.734l-1.586.952-1.093-2.198L25 17.7zm-4.962 6.025l-2 7a1 1 0 00.068.722L18.882 33l-.418.835L16 33.22V31.1l1.89-9.45 2.68-1.49 1.123 2.258-1.208.725a1 1 0 00-.447.583zm8.314-1.256L27 20.667V16.72l1.747-.582a4.78 4.78 0 006.128.04L36 16.66V21a1 1 0 00.168.555A10.874 10.874 0 0138 27.605V29h-8v-1.587a8.293 8.293 0 00-1.648-4.944zm7.462 23.112a1 1 0 00.135-.897l-1.655-4.962 4.437 4.425-5.972 9.582-1.494-1.779 4.549-6.369zM32.236 60l-1.449-.725-1.614-4.035 1.22-1.22 1.256 1.495a.996.996 0 00.81 1.48l-.712 1.596a1 1 0 00.4 1.266l.237.142-.148.001zm4.04 0l-2.341-1.402.713-1.598h2.375l1.405 3h-2.151zm7.011-18.91c.467.777.713 1.666.713 2.572v.373a4.967 4.967 0 01-.97 2.959L37.154 55h-2.83l6.525-10.471a1 1 0 00-.142-1.237l-7.625-7.607A3.728 3.728 0 0132 33.05V31h6v1c0 .181.05.359.142.514l5.145 8.575zM47 8.937l-.92 7.353L42 17.923v-2.535l1.316-.44a1 1 0 00.665-.752l1-5a1 1 0 00-.087-.643L44.118 7l.776-1.553A1 1 0 0045 5V4h1.382L47 5.236v3.701z" fill="#5A2E91"/><path d="M27.707 37.293l-.586-.586A3.804 3.804 0 0126 34a1 1 0 10-2 0 5.79 5.79 0 001.707 4.121l.586.586a1 1 0 001.414-1.414zM12.684 21.949a.997.997 0 001.265-.633l.293-.878a4.37 4.37 0 012.205-2.544 1 1 0 00-.894-1.788 6.356 6.356 0 00-3.209 3.7l-.293.878a1 1 0 00.633 1.265zm6.317-5.449a.998.998 0 00.447-.106l1-.5a1 1 0 10-.895-1.789l-1 .5a1 1 0 00.448 1.895zm32.289 2.794l.659-1.978a1 1 0 00-1.898-.632l-.66 1.978a1.318 1.318 0 01-.762.81 1.001 1.001 0 00.742 1.857 3.314 3.314 0 001.918-2.035zm-5.661 1.378l-1 .4a1 1 0 10.743 1.857l1-.4a1 1 0 00-.743-1.857zM25 31a1 1 0 001-1v-1a1 1 0 00-2 0v1a1 1 0 001 1z" fill="#5A2E91"/></svg>
